X: 41
T: Miss Margaret Graham of Gartmore's Strathspey
R: strathspey
B: William Shepherd "1st Collection" 1793 p.4 #1
F: http://imslp.org/wiki/File:PMLP73094-Shepherd_Collections_HMT.pdf
C: William Shepherd (17??-1812)
Z: 2012 John Chambers <jc:trillian.mit.edu>
M: C|
L: 1/16
K: G
|:\
TGG3B3G d3GBg3 | TGG3B3G TF3A (GF).E.D |\
TGG3B3G d3GBg3 | c3aB3g TF2A2 (GF).E.D :|
|:\
G3gd3g B3Gd3B | G3gB3g TF3A (GF).E.D |\
G3gd3g B3Gd3B |1 c3eBd3 TF2A2 (GF).E.D :|2 c3aB3g TF2A2 (GF).E.D |]
